X: 27618
T: Moon And The Seven Stars, The
R: jig
M: 6/8
K: Dmajor
c|:d2A A2F|GAB A3|Bcd ~e3|~d3 cBA|
d2A A2F|GAB A3|Bcd e2e|1 (3A/B/c/dc d2c:|2 (3A/B/c/dc d2d||
|:e2A e2A|efg f2d|efg fed|cdB A2A|
~B3 AFA|~B3 A2A|Bcd e2e|1 (3A/B/c/dc d2d:|2 (3A/B/c/dc d2c||

